Dominus_Dark_Funeral/scalable/apps/application-community.svg

<?xml version="1.0" encoding="UTF-8" standalone="no"?><svg xmlns:dc="http://purl.org/dc/elements/1.1/" xmlns:cc="http://creativecommons.org/ns#" xmlns:rdf="http://www.w3.org/1999/02/22-rdf-syntax-ns#" xmlns="http://www.w3.org/2000/svg" xmlns:xlink="http://www.w3.org/1999/xlink" width="48" height="48" viewBox="0 0 12.7 12.7"><metadata><rdf:RDF><cc:Work><dc:format>image/svg+xml</dc:format><dc:type rdf:resource="http://purl.org/dc/dcmitype/StillImage"/><dc:title/></cc:Work></rdf:RDF></metadata><defs><linearGradient id="c"><stop offset="0" stop-color="#3771c8"/><stop offset="1" stop-color="#afc6e9"/></linearGradient><linearGradient id="b"><stop offset="0"/><stop offset="1" stop-color="#fff" stop-opacity="0"/></linearGradient><linearGradient id="a"><stop offset="0" stop-color="#5f8dd3"/><stop offset="1" stop-color="#d7e3f4"/></linearGradient><linearGradient xlink:href="#c" id="d" x1="5.96" y1="-.23" x2="9.87" y2="11.9" gradientUnits="userSpaceOnUse"/></defs><path d="M6.35.1C4.81.1 3.57.38 2.66.96A3.67 3.67 0 0 0 1 4.22c0 1.91 1.54 4.47 2.01 5.2.54.85 1.13 1.61 1.65 2.16.68.7 1.21 1.03 1.69 1.03s1.01-.33 1.69-1.03a15.2 15.2 0 0 0 1.65-2.15c.47-.74 2-3.3 2-5.21 0-1.42-.57-2.54-1.65-3.25A6.75 6.75 0 0 0 6.35.1z" fill="url(#d)"/><path d="M7.42 12.13c.2-.15.4-.29.62-.52a15.2 15.2 0 0 0 1.65-2.15c.23-.37.73-1.2 1.18-2.17.22-.48.42-1 .57-1.52.13-.45.2-.89.22-1.3L8.23 1.03l-.12.6.05 1.5-.33 1.78-.77-.77L7 5.25l-.28.38-3.07-3.07.13 1 .8 2.18.38 1.97.34 2.3z" opacity=".73" fill="#162d50"/><path d="M6.35.1C4.81.1 3.57.38 2.66.96A3.67 3.67 0 0 0 1 4.22c0 1.91 1.54 4.47 2.01 5.2.54.85 1.13 1.61 1.65 2.16.68.7 1.21 1.03 1.69 1.03s1.01-.33 1.69-1.03a15.2 15.2 0 0 0 1.65-2.15c.47-.74 2-3.3 2-5.21 0-1.42-.57-2.54-1.65-3.25A6.75 6.75 0 0 0 6.35.1zm0 .03C6.91.15 7.44.2 7.9.31a5.82 5.82 0 0 1 1.6.66 3.65 3.65 0 0 1 1.24 1.36c.14.27.25.57.32.88a4.61 4.61 0 0 1-.14 2.53c-.15.52-.36 1.04-.58 1.52-.44.97-.95 1.8-1.18 2.17a15.2 15.2 0 0 1-1.65 2.15 4.9 4.9 0 0 1-.92.78.96.96 0 0 1-.24.1.96.96 0 0 1-.24-.1 4.76 4.76 0 0 1-.92-.78 14.41 14.41 0 0 1-1.65-2.15 19.2 19.2 0 0 1-1.18-2.17c-.22-.48-.43-1-.58-1.52a4.6 4.6 0 0 1-.14-2.52 3.73 3.73 0 0 1 .84-1.64 3.65 3.65 0 0 1 1.45-1A6.83 6.83 0 0 1 6.35.13z" opacity=".2"/><g fill="#e9c6af"><path d="M8.23 1.04c.11.14.16.81.2 2.4 0 .58 0 .81-.08 1.07-.06.17-.1.35-.1.4l-.06.17c-.07.1.02.4.12.4.07 0 .07.47-.01.51-.09.06-.21-.15-.18-.3.03-.1.02-.12-.08-.08-.06.01-.12 0-.12-.01a.9.9 0 0 0-.16-.24l-.17-.2.11.24c.06.13.11.27.11.32 0 .05.02.07.05.06.03-.02.12.07.2.2.13.24.45.58.7.78.08.06.17.16.19.22.04.14.02.54-.04.57-.04.03-.35.6-.36.66 0 .1-.1.17-.15.12a.24.24 0 0 0-.14-.06c-.06 0-.05.03.05.1.07.07.1.12.07.12-.04 0-.07.06-.09.14l-.01.14-.15-.11c-.2-.16-.24-.15-.07.03.08.09.14.22.14.3 0 .14-.02.15-.12.13-.1-.04-.11-.02-.09.05.02.05 0 .08-.04.08a.13.13 0 0 0-.1.07c-.02.05-.04.05-.1 0-.11-.11-.18-.08-.08.04.1.1.1.1-.03.08L7.5 9.4l.11.13c.12.14.12.14-.16.02-.05-.02-.09 0-.09.03s.03.06.05.06c.02 0 .1.03.15.07.1.08.08.08-.17.06a1.45 1.45 0 0 1-.89-.42c-.13-.14-.17-.24-.19-.46a.92.92 0 0 1 .02-.36c.03-.05.05-.02.05.1 0 .16.13.4.19.34a.64.64 0 0 0 .04-.23c0-.11.02-.2.04-.2s.02-.1.01-.2c-.03-.36.1-.68.35-.85.12-.08.24-.13.28-.12.03.01.14.15.24.3.1.15.23.28.27.3.05.02.04-.02-.03-.1-.21-.23-.22-.28-.04-.24.14.04.13.03-.08-.12-.27-.2-.3-.26-.08-.2l.15.04-.16-.17c-.1-.1-.14-.17-.11-.17.02 0 0-.05-.05-.1-.06-.07-.08-.12-.04-.15.08-.05-.27-.4-.45-.44-.08-.02-.15-.06-.15-.09 0-.02-.05-.05-.12-.05-.29 0-1.02-.53-1.19-.86-.14-.26-.04-.58.2-.68.07-.02.12-.06.1-.08-.06-.07-.35.15-.42.3-.14.36.08.74.72 1.22.41.3.45.37.45.78 0 .15.04.33.07.41.15.29.05.48-.23.42-.1-.03-.13-.03-.1.02.05.1-.06.07-.15-.03a4.28 4.28 0 0 1-.29-.76 8.92 8.92 0 0 0-.44-1.1c-.3-.59-.38-.96-.23-1.14.14-.19.49-.29.67-.2.08.03.14.1.14.14 0 .04.05.1.1.11.07.02.12.06.12.08 0 .06.2.12.44.14.16.02.14 0-.13-.1-.24-.08-.32-.13-.35-.23-.05-.2.02-.4.18-.56.12-.11.18-.14.36-.1.29.03.43.18.49.48.11.61.14.67.23.7.05 0 .1-.03.1-.07.01-.14.02-.17.06-.23.02-.03.05-.44.07-.9a5.7 5.7 0 0 1 .11-1.34 4.56 4.56 0 0 1 0-1.58c.1-.07.45-.05.5.02z"/><path d="M3.66 2.56c.09.08.18.28.31.67a12.82 12.82 0 0 0 .3.9c.05.2.3.85.47 1.2l.19.45c.02.06.11.15.21.19.18.08.34.34.48.79.06.2.06.22-.05.29-.16.11-.14.19.03.14.16-.04.24.04.24.24 0 .18.24.5.41.53.12.03.14.06.11.16-.04.14-.18.84-.23 1.13-.02.14 0 .23.06.3.1.11.1.11.06-.1 0-.1 0-.2.02-.2s.13.11.24.25c.11.13.25.25.32.28.13.04.09.13-.07.13-.05 0-.1.02-.1.06 0 .02-.05.05-.12.04-.1-.01-.12.01-.11.08.01.06-.02.1-.07.1-.04 0-.08.02-.08.06 0 .04.1.05.34.03.23-.01.39 0 .44.04.12.1.12.15 0 .13a.94.94 0 0 0-.26.03c-.28.06-.68.05-.76-.02a.6.6 0 0 0-.23-.08.37.37 0 0 1-.2-.07c-.06-.06-.03-.06.4-.08a1 1 0 0 0 .21-.02c0-.05-.22-.13-.43-.16-.2-.03-.24-.02-.2.05.06.17-.12.09-.35-.16a2.91 2.91 0 0 1-.55-1.05c0-.04-.03-.07-.05-.07-.03 0-.06-.07-.08-.16l-.09-.48a7.76 7.76 0 0 1-.08-.9c-.02-.32-.06-.6-.09-.62-.03-.04-.05-.12-.05-.19s-.04-.2-.08-.28c-.04-.08-.1-.28-.12-.44a.91.91 0 0 0-.08-.31c-.03-.02-.05-.08-.05-.14a.83.83 0 0 0-.08-.28c-.13-.3-.3-.88-.27-.93 0-.02 0-.11-.05-.2-.1-.2-.28-.94-.27-1.1.01-.13.15-.33.23-.33.02 0 .1.04.18.1zM6.58 6.32l.06.2c.13.4.23.6.32.68.08.05.15.1.18.1.07 0 .21-.2.23-.33l-.01-.03a.85.85 0 0 0-.46-.45c-.1-.03-.17-.07-.17-.1 0-.04-.07-.06-.15-.06z"/></g></svg>

<?xml version="1.0" encoding="UTF-8" standalone="no"?>
<svg
   xmlns:dc="http://purl.org/dc/elements/1.1/"
   xmlns:cc="http://creativecommons.org/ns#"
   xmlns:rdf="http://www.w3.org/1999/02/22-rdf-syntax-ns#"
   xmlns:svg="http://www.w3.org/2000/svg"
   xmlns="http://www.w3.org/2000/svg"
   xmlns:xlink="http://www.w3.org/1999/xlink"
   xmlns:sodipodi="http://sodipodi.sourceforge.net/DTD/sodipodi-0.dtd"
   xmlns:inkscape="http://www.inkscape.org/namespaces/inkscape"
   width="48"
   height="48"
   viewBox="0 0 12.7 12.7"
   version="1.1"
   id="svg34"
   sodipodi:docname="application-community.svg"
   inkscape:version="0.92.4 (5da689c313, 2019-01-14)">
  <sodipodi:namedview
     pagecolor="#ffffff"
     bordercolor="#666666"
     borderopacity="1"
     objecttolerance="10"
     gridtolerance="10"
     guidetolerance="10"
     inkscape:pageopacity="0"
     inkscape:pageshadow="2"
     inkscape:window-width="1112"
     inkscape:window-height="480"
     id="namedview36"
     showgrid="false"
     inkscape:zoom="4.9166667"
     inkscape:cx="2.1355932"
     inkscape:cy="24"
     inkscape:window-x="0"
     inkscape:window-y="25"
     inkscape:window-maximized="0"
     inkscape:current-layer="svg34" />
  <metadata
     id="metadata2">
    <rdf:RDF>
      <cc:Work>
        <dc:format>image/svg+xml</dc:format>
        <dc:type
           rdf:resource="http://purl.org/dc/dcmitype/StillImage" />
        <dc:title></dc:title>
      </cc:Work>
    </rdf:RDF>
  </metadata>
  <defs
     id="defs20">
    <linearGradient
       id="c">
      <stop
         offset="0"
         stop-color="#3771c8"
         id="stop4" />
      <stop
         offset="1"
         stop-color="#afc6e9"
         id="stop6" />
    </linearGradient>
    <linearGradient
       id="b">
      <stop
         offset="0"
         id="stop9" />
      <stop
         offset="1"
         stop-color="#fff"
         stop-opacity="0"
         id="stop11" />
    </linearGradient>
    <linearGradient
       id="a">
      <stop
         offset="0"
         stop-color="#5f8dd3"
         id="stop14" />
      <stop
         offset="1"
         stop-color="#d7e3f4"
         id="stop16" />
    </linearGradient>
    <linearGradient
       xlink:href="#c"
       id="d"
       x1="5.96"
       y1="-.23"
       x2="9.87"
       y2="11.9"
       gradientUnits="userSpaceOnUse" />
  </defs>
  <path
     d="M 6.35,0.1 C 4.81,0.1 3.57,0.38 2.66,0.96 A 3.67,3.67 0 0 0 1,4.22 c 0,1.91 1.54,4.47 2.01,5.2 0.54,0.85 1.13,1.61 1.65,2.16 0.68,0.7 1.21,1.03 1.69,1.03 0.48,0 1.01,-0.33 1.69,-1.03 A 15.2,15.2 0 0 0 9.69,9.43 c 0.47,-0.74 2,-3.3 2,-5.21 0,-1.42 -0.57,-2.54 -1.65,-3.25 A 6.75,6.75 0 0 0 6.35,0.1 Z"
     id="path22"
     style="fill:url(#d)"
     inkscape:connector-curvature="0" />
  <path
     d="m 7.42,12.13 c 0.2,-0.15 0.4,-0.29 0.62,-0.52 A 15.2,15.2 0 0 0 9.69,9.46 c 0.23,-0.37 0.73,-1.2 1.18,-2.17 0.22,-0.48 0.42,-1 0.57,-1.52 0.13,-0.45 0.2,-0.89 0.22,-1.3 L 8.23,1.03 8.11,1.63 8.16,3.13 7.83,4.91 7.06,4.14 7,5.25 6.72,5.63 3.65,2.56 l 0.13,1 0.8,2.18 0.38,1.97 0.34,2.3 z"
     id="path24"
     inkscape:connector-curvature="0"
     style="opacity:0.73000004;fill:#162d50" />
  <path
     d="M 6.35,0.1 C 4.81,0.1 3.57,0.38 2.66,0.96 A 3.67,3.67 0 0 0 1,4.22 c 0,1.91 1.54,4.47 2.01,5.2 0.54,0.85 1.13,1.61 1.65,2.16 0.68,0.7 1.21,1.03 1.69,1.03 0.48,0 1.01,-0.33 1.69,-1.03 A 15.2,15.2 0 0 0 9.69,9.43 c 0.47,-0.74 2,-3.3 2,-5.21 0,-1.42 -0.57,-2.54 -1.65,-3.25 A 6.75,6.75 0 0 0 6.35,0.1 Z m 0,0.03 C 6.91,0.15 7.44,0.2 7.9,0.31 a 5.82,5.82 0 0 1 1.6,0.66 3.65,3.65 0 0 1 1.24,1.36 c 0.14,0.27 0.25,0.57 0.32,0.88 A 4.61,4.61 0 0 1 10.92,5.74 C 10.77,6.26 10.56,6.78 10.34,7.26 9.9,8.23 9.39,9.06 9.16,9.43 A 15.2,15.2 0 0 1 7.51,11.58 4.9,4.9 0 0 1 6.59,12.36 0.96,0.96 0 0 1 6.35,12.46 0.96,0.96 0 0 1 6.11,12.36 4.76,4.76 0 0 1 5.19,11.58 14.41,14.41 0 0 1 3.54,9.43 19.2,19.2 0 0 1 2.36,7.26 C 2.14,6.78 1.93,6.26 1.78,5.74 A 4.6,4.6 0 0 1 1.64,3.22 3.73,3.73 0 0 1 2.48,1.58 3.65,3.65 0 0 1 3.93,0.58 6.83,6.83 0 0 1 6.35,0.13 Z"
     id="path26"
     inkscape:connector-curvature="0"
     style="opacity:0.2" />
  <g
     id="g32"
     style="fill:#e9c6af">
    <path
       d="m 8.23,1.04 c 0.11,0.14 0.16,0.81 0.2,2.4 0,0.58 0,0.81 -0.08,1.07 -0.06,0.17 -0.1,0.35 -0.1,0.4 L 8.19,5.08 c -0.07,0.1 0.02,0.4 0.12,0.4 0.07,0 0.07,0.47 -0.01,0.51 C 8.21,6.05 8.09,5.84 8.12,5.69 8.15,5.59 8.14,5.57 8.04,5.61 7.98,5.62 7.92,5.61 7.92,5.6 A 0.9,0.9 0 0 0 7.76,5.36 L 7.59,5.16 7.7,5.4 c 0.06,0.13 0.11,0.27 0.11,0.32 0,0.05 0.02,0.07 0.05,0.06 0.03,-0.02 0.12,0.07 0.2,0.2 0.13,0.24 0.45,0.58 0.7,0.78 0.08,0.06 0.17,0.16 0.19,0.22 0.04,0.14 0.02,0.54 -0.04,0.57 -0.04,0.03 -0.35,0.6 -0.36,0.66 0,0.1 -0.1,0.17 -0.15,0.12 A 0.24,0.24 0 0 0 8.26,8.27 c -0.06,0 -0.05,0.03 0.05,0.1 0.07,0.07 0.1,0.12 0.07,0.12 -0.04,0 -0.07,0.06 -0.09,0.14 L 8.28,8.77 8.13,8.66 C 7.93,8.5 7.89,8.51 8.06,8.69 8.14,8.78 8.2,8.91 8.2,8.99 8.2,9.13 8.18,9.14 8.08,9.12 7.98,9.08 7.97,9.1 7.99,9.17 8.01,9.22 7.99,9.25 7.95,9.25 A 0.13,0.13 0 0 0 7.85,9.32 C 7.83,9.37 7.81,9.37 7.75,9.32 7.64,9.21 7.57,9.24 7.67,9.36 c 0.1,0.1 0.1,0.1 -0.03,0.08 L 7.5,9.4 7.61,9.53 C 7.73,9.67 7.73,9.67 7.45,9.55 7.4,9.53 7.36,9.55 7.36,9.58 c 0,0.03 0.03,0.06 0.05,0.06 0.02,0 0.1,0.03 0.15,0.07 0.1,0.08 0.08,0.08 -0.17,0.06 A 1.45,1.45 0 0 1 6.5,9.35 C 6.37,9.21 6.33,9.11 6.31,8.89 A 0.92,0.92 0 0 1 6.33,8.53 c 0.03,-0.05 0.05,-0.02 0.05,0.1 0,0.16 0.13,0.4 0.19,0.34 A 0.64,0.64 0 0 0 6.61,8.74 c 0,-0.11 0.02,-0.2 0.04,-0.2 0.02,0 0.02,-0.1 0.01,-0.2 C 6.63,7.98 6.76,7.66 7.01,7.49 7.13,7.41 7.25,7.36 7.29,7.37 7.32,7.38 7.43,7.52 7.53,7.67 7.63,7.82 7.76,7.95 7.8,7.97 7.85,7.99 7.84,7.95 7.77,7.87 7.56,7.64 7.55,7.59 7.73,7.63 7.87,7.67 7.86,7.66 7.65,7.51 7.38,7.31 7.35,7.25 7.57,7.31 L 7.72,7.35 7.56,7.18 C 7.46,7.08 7.42,7.01 7.45,7.01 7.47,7.01 7.45,6.96 7.4,6.91 7.34,6.84 7.32,6.79 7.36,6.76 7.44,6.71 7.09,6.36 6.91,6.32 6.83,6.3 6.76,6.26 6.76,6.23 6.76,6.21 6.71,6.18 6.64,6.18 6.35,6.18 5.62,5.65 5.45,5.32 5.31,5.06 5.41,4.74 5.65,4.64 5.72,4.62 5.77,4.58 5.75,4.56 5.69,4.49 5.4,4.71 5.33,4.86 5.19,5.22 5.41,5.6 6.05,6.08 6.46,6.38 6.5,6.45 6.5,6.86 6.5,7.01 6.54,7.19 6.57,7.27 6.72,7.56 6.62,7.75 6.34,7.69 6.24,7.66 6.21,7.66 6.24,7.71 6.29,7.81 6.18,7.78 6.09,7.68 A 4.28,4.28 0 0 1 5.8,6.92 8.92,8.92 0 0 0 5.36,5.82 C 5.06,5.23 4.98,4.86 5.13,4.68 5.27,4.49 5.62,4.39 5.8,4.48 c 0.08,0.03 0.14,0.1 0.14,0.14 0,0.04 0.05,0.1 0.1,0.11 0.07,0.02 0.12,0.06 0.12,0.08 0,0.06 0.2,0.12 0.44,0.14 0.16,0.02 0.14,0 -0.13,-0.1 C 6.23,4.77 6.15,4.72 6.12,4.62 6.07,4.42 6.14,4.22 6.3,4.06 6.42,3.95 6.48,3.92 6.66,3.96 6.95,3.99 7.09,4.14 7.15,4.44 7.26,5.05 7.29,5.11 7.38,5.14 7.43,5.14 7.48,5.11 7.48,5.07 7.49,4.93 7.5,4.9 7.54,4.84 7.56,4.81 7.59,4.4 7.61,3.94 a 5.7,5.7 0 0 1 0.11,-1.34 4.56,4.56 0 0 1 0,-1.58 c 0.1,-0.07 0.45,-0.05 0.5,0.02 z"
       id="path28"
       inkscape:connector-curvature="0" />
    <path
       d="m 3.66,2.56 c 0.09,0.08 0.18,0.28 0.31,0.67 a 12.82,12.82 0 0 0 0.3,0.9 c 0.05,0.2 0.3,0.85 0.47,1.2 L 4.93,5.78 C 4.95,5.84 5.04,5.93 5.14,5.97 5.32,6.05 5.48,6.31 5.62,6.76 5.68,6.96 5.68,6.98 5.57,7.05 5.41,7.16 5.43,7.24 5.6,7.19 5.76,7.15 5.84,7.23 5.84,7.43 c 0,0.18 0.24,0.5 0.41,0.53 0.12,0.03 0.14,0.06 0.11,0.16 -0.04,0.14 -0.18,0.84 -0.23,1.13 -0.02,0.14 0,0.23 0.06,0.3 0.1,0.11 0.1,0.11 0.06,-0.1 0,-0.1 0,-0.2 0.02,-0.2 0.02,0 0.13,0.11 0.24,0.25 0.11,0.13 0.25,0.25 0.32,0.28 0.13,0.04 0.09,0.13 -0.07,0.13 -0.05,0 -0.1,0.02 -0.1,0.06 0,0.02 -0.05,0.05 -0.12,0.04 -0.1,-0.01 -0.12,0.01 -0.11,0.08 0.01,0.06 -0.02,0.1 -0.07,0.1 -0.04,0 -0.08,0.02 -0.08,0.06 0,0.04 0.1,0.05 0.34,0.03 0.23,-0.01 0.39,0 0.44,0.04 0.12,0.1 0.12,0.15 0,0.13 A 0.94,0.94 0 0 0 6.8,10.48 C 6.52,10.54 6.12,10.53 6.04,10.46 A 0.6,0.6 0 0 0 5.81,10.38 0.37,0.37 0 0 1 5.61,10.31 C 5.55,10.25 5.58,10.25 6.01,10.23 A 1,1 0 0 0 6.22,10.21 C 6.22,10.16 6,10.08 5.79,10.05 5.59,10.02 5.55,10.03 5.59,10.1 5.65,10.27 5.47,10.19 5.24,9.94 A 2.91,2.91 0 0 1 4.69,8.89 C 4.69,8.85 4.66,8.82 4.64,8.82 4.61,8.82 4.58,8.75 4.56,8.66 L 4.47,8.18 A 7.76,7.76 0 0 1 4.39,7.28 C 4.37,6.96 4.33,6.68 4.3,6.66 4.27,6.62 4.25,6.54 4.25,6.47 4.25,6.4 4.21,6.27 4.17,6.19 4.13,6.11 4.07,5.91 4.05,5.75 A 0.91,0.91 0 0 0 3.97,5.44 C 3.94,5.42 3.92,5.36 3.92,5.3 A 0.83,0.83 0 0 0 3.84,5.02 C 3.71,4.72 3.54,4.14 3.57,4.09 3.57,4.07 3.57,3.98 3.52,3.89 3.42,3.69 3.24,2.95 3.25,2.79 3.26,2.66 3.4,2.46 3.48,2.46 c 0.02,0 0.1,0.04 0.18,0.1 z m 2.92,3.76 0.06,0.2 c 0.13,0.4 0.23,0.6 0.32,0.68 0.08,0.05 0.15,0.1 0.18,0.1 0.07,0 0.21,-0.2 0.23,-0.33 L 7.36,6.94 A 0.85,0.85 0 0 0 6.9,6.49 C 6.8,6.46 6.73,6.42 6.73,6.39 6.73,6.35 6.66,6.33 6.58,6.33 Z"
       id="path30"
       inkscape:connector-curvature="0" />
  </g>
</svg>
